!!!COM: Bach, Johann Sebastian
!!!CDT: 1685/3//-1750/7/28/
!!!OTL: Orchestral Suite No. 3 in D Major
!!!ONM: No. 2
!!!OMD: Air
!!!ONB: Conducting beat is on the eighth-note
**cond	**kern	**dynam	**kern	**dynam	**kern	**dynam	**kern	**dynam
*	*staff4	*staff4	*staff3	*staff3	*staff2	*staff2	*staff1	*staff1
*	*Icemba	*Icemba	*Iviola	*Iviola	*Ivioln	*Ivioln	*Ivioln	*Ivioln
*>[A,A1,A,A2,B,B]	*>[A,A1,A,A2,B,B]	*>[A,A1,A,A2,B,B]	*>[A,A1,A,A2,B,B]	*>[A,A1,A,A2,B,B]	*>[A,A1,A,A2,B,B]	*>[A,A1,A,A2,B,B]	*>[A,A1,A,A2,B,B]	*>[A,A1,A,A2,B,B]
*>norep[A,A2,B]	*>norep[A,A2,B]	*>norep[A,A2,B]	*>norep[A,A2,B]	*>norep[A,A2,B]	*>norep[A,A2,B]	*>norep[A,A2,B]	*>norep[A,A2,B]	*>norep[A,A2,B]
*>A	*>A	*>A	*>A	*>A	*>A	*>A	*>A	*>A
*	*clefF4	*clefF4	*clefC3	*clefC3	*clefG2	*clefG2	*clefG2	*clefG2
*	*k[f#c#]	*k[f#c#]	*k[f#c#]	*k[f#c#]	*k[f#c#]	*k[f#c#]	*k[f#c#]	*k[f#c#]
*met(C)	*met(C)	*met(C)	*met(C)	*met(C)	*met(C)	*met(C)	*met(C)	*met(C)
*M4/4	*M4/4	*M4/4	*M4/4	*M4/4	*M4/4	*M4/4	*M4/4	*M4/4
*MM50	*MM50	*MM50	*MM50	*MM50	*MM50	*MM50	*MM50	*MM50
=1-	=1-	=1-	=1-	=1-	=1-	=1-	=1-	=1-
b	8D\L	mp	2a\	p	[1dd	p	[1ff#	p
b	8d\	.	.	.	.	.	.	.
b	8c#\	.	.	.	.	.	.	.
b	8C#\J	.	.	.	.	.	.	.
b	8BB\L	.	2b\	.	.	.	.	.
b	8B\	.	.	.	.	.	.	.
b	8A\	.	.	.	.	.	.	.
b	8AA\J	.	.	.	.	.	.	.
=2	=2	=2	=2	=2	=2	=2	=2	=2
b	8GG/L	.	4B/	.	4dd\]	.	8ff#\L]	>
b	8G/	.	.	.	.	.	16bb\L	.
.	.	.	.	.	.	.	16gg\JJ	.
.	.	.	.	.	.	.	ff#q/	.
b	8G#/	.	4e\	.	4b\	.	16ee\LL	.
.	.	.	.	.	.	.	16dd\	.
b	8GG#/J	.	.	.	.	.	16cc#\	.
.	.	.	.	.	.	.	16dd\JJ	.
b	8AA\L	.	[2e\	.	[2a/	.	4cc#\	.
b	8A\	.	.	.	.	.	.	.
.	.	.	.	.	.	.	bq/	.
b	8Gn\	.	.	.	.	.	4a/	.
b	8GGn\J	.	.	.	.	.	.	.
=3	=3	=3	=3	=3	=3	=3	=3	=3
b	8FF#/L	.	8e\L]	.	8a\L]	.	[2aa\	<
b	8F#/	.	8d#\	.	16ccn\L	.	.	.
.	.	.	.	.	16b\JJ	.	.	.
b	8E/	.	(8d#\	.	8cc\L	.	.	.
b	8EE/J	.	8e\J)	.	16aa\L	.	.	.
.	.	.	.	.	16cc\JJ	.	.	.
b	8DD#/L	.	8f#\	.	8b\	.	16aa\LL]	>
.	.	.	.	.	.	.	(16ff#\	.
b	8D#/	.	8r	.	8r	.	16ccn\	.
.	.	.	.	.	.	.	16b\JJ)	.
b	8BB/	.	4r	.	4r	.	(16ee\LL	.
.	.	.	.	.	.	.	16dd#\)	.
b	8B/J	.	.	.	.	.	(16aa\	.
.	.	.	.	.	.	.	16gg\JJ)	.
=4	=4	=4	=4	=4	=4	=4	=4	=4
b	8EE/L	.	8e\L	.	8b\L	.	[2gg\	<
b	8E/	.	[8B\	.	16ee\L	.	.	.
.	.	.	.	.	16dd\JJ	.	.	.
b	8D/	.	8B\]	.	16ee\LL	.	.	.
.	.	.	.	.	16ff#\	.	.	.
b	8DD/J	.	8e\J	.	16gg\	.	.	.
.	.	.	.	.	16ee\JJ	.	.	.
b	8CC#/L	.	8e\	.	8a/	.	16gg\LL]	.
.	.	.	.	.	.	.	(16ee\	.
b	8C#/	.	8r	.	8r	.	16b\	.
.	.	.	.	.	.	.	(16a\JJ)	.
b	8AA/	.	4r	.	4r	.	16dd\LL	.
.	.	.	.	.	.	.	16cc#\)	.
b	8A/J	.	.	.	.	.	(16gg\	.
.	.	.	.	.	.	.	16ff#\JJ)	.
=5	=5	=5	=5	=5	=5	=5	=5	=5
b	8D\L	.	4.d\	.	[2a/	.	4.ff#\	.
b	8d\	.	.	.	.	.	.	.
b	8c#\	.	.	.	.	.	.	.
b	8C#\J	.	8e\	.	.	.	(16gg#\LL	.
.	.	.	.	.	.	.	16aa\JJ)	.
b	8BB\L	.	8f#\L	.	8a/L]	.	8dd\L	.
b	8B\	.	8d\	.	16g#/L	.	32dd\LL	.
.	.	.	.	.	.	.	32ee\J	.
.	.	.	.	.	16a/JJ	.	[16ff#\JJ	.
b	8G#\	.	8B\	.	8b/L	.	16ff#\LL]	.
.	.	.	.	.	.	.	16ee\	.
b	8E\J	.	[8e\J	.	8g#/J	.	(16ee\	.
.	.	.	.	.	.	.	16dd\JJ)	.
=6	=6	=6	=6	=6	=6	=6	=6	=6
*>A1	*>A1	*>A1	*>A1	*>A1	*>A1	*>A1	*>A1	*>A1
b	8A/L	.	8e\L]	.	8a/L	.	16cc#\LL	>
.	.	.	.	.	.	.	(16b\	.
b	8D/	.	8f#\	.	[8a/J	.	32b\L	.
.	.	.	.	.	.	.	32cc#\J	.
.	.	.	.	.	.	.	[16dd\JJ	.
b	8E/	.	8B\	.	8a/L]	.	8dd\L])	.
b	8EE/J	.	8e\J	.	8g#/J	.	16cc#\L	.
.	.	.	.	.	.	.	16b\JJ	.
b	(16AA/LL	.	2c#\	.	2e/	.	2a/	.
.	16BB/	.	.	.	.	.	.	.
b	16C#/	.	.	.	.	.	.	.
.	16D/JJ	.	.	.	.	.	.	.
b	16E\LL	.	.	.	.	.	.	.
.	16G\	.	.	.	.	.	.	.
b	16F#\	.	.	.	.	.	.	.
.	16E\JJ)	.	.	.	.	.	.	.
=7:|!	=7:|!	=7:|!	=7:|!	=7:|!	=7:|!	=7:|!	=7:|!	=7:|!
*>A2	*>A2	*>A2	*>A2	*>A2	*>A2	*>A2	*>A2	*>A2
b	8A/L	.	8e\L]	.	8a/L	.	16cc#\LL	>
.	.	.	.	.	.	.	16b\	.
b	8D/	.	8f#\	.	[8a/J	.	32b\L	.
.	.	.	.	.	.	.	32cc#\J	.
.	.	.	.	.	.	.	[16dd\JJ	.
b	8E/	.	8B\	.	8a/L]	.	8dd\L]	.
b	8EE/J	.	8e\J	.	8g#/J	.	16cc#\L	.
.	.	.	.	.	.	.	16b\JJ	.
bbbb	2AA/	.	2c#\	.	2e/	.	2a/	.
=8!|:	=8!|:	=8!|:	=8!|:	=8!|:	=8!|:	=8!|:	=8!|:	=8!|:
*>B	*>B	*>B	*>B	*>B	*>B	*>B	*>B	*>B
b	8AA\L	.	[2e\	.	[2a/	.	[4cc#\	mp
b	8A\	.	.	.	.	.	.	.
b	8G\	.	.	.	.	.	16cc#\LL]	.
.	.	.	.	.	.	.	32dd\L	.
.	.	.	.	.	.	.	32cc#\	.
b	8GG\J	.	.	.	.	.	32b\	.
.	.	.	.	.	.	.	32cc#\J	.
.	.	.	.	.	.	.	16a\JJ	.
b	8FF#/L	.	8e\L]	.	16a\LL]	.	4.aa\	.
.	.	.	.	.	16b\J	.	.	.
b	8F#/	.	16d#\L	.	[8ccn\J	.	.	.
.	.	.	16e\JJ	.	.	.	.	.
b	8E/	.	[4f#\	.	16cc/LL]	.	.	.
.	.	.	.	.	16b/	.	.	.
b	8EE/J	.	.	.	16a/	.	8ccn\	.
.	.	.	.	.	16g/JJ	.	.	.
=9	=9	=9	=9	=9	=9	=9	=9	=9
b	8DD#/L	.	16f#\LL]	.	4.f#/	.	8b\L	.
.	.	.	16g\	.	.	.	.	.
b	8D#/	.	16a\	.	.	.	[8bb\J	.
.	.	.	16f#\JJ	.	.	.	.	.
b	8F#/	.	8d#\L	.	.	.	16bb\LL]	.
.	.	.	.	.	.	.	16aa\	.
b	8BB/J	.	8b\J	.	8dd#\	.	16gg\	.
.	.	.	.	.	.	.	16ff#\JJ	.
b	8E\L	.	4b\	.	[2ee\	.	[4gg\	>
b	8e\	.	.	.	.	.	.	.
b	8dn\	.	4B/	.	.	.	(32gg\LLL]	.
.	.	.	.	.	.	.	32ff#\	.
.	.	.	.	.	.	.	32ee\	.
.	.	.	.	.	.	.	32dd\J	.
b	8Dn\J	.	.	.	.	.	16cc#\	.
.	.	.	.	.	.	.	16b\JJ)	.
=10	=10	=10	=10	=10	=10	=10	=10	=10
b	8C#\L	.	(16c#\LL	.	2ee\_	.	16a#\LL	<
.	.	.	16d\	.	.	.	16b\J	.
b	8c#\	.	16e\	.	.	.	[8cc#\J	.
.	.	.	16f#\JJ)	.	.	.	.	.
b	8B\	.	(16g\LL	.	.	.	16cc#\LL]	.
.	.	.	16f#\	.	.	.	16dd\J	.
b	8BB\J	.	16g\	.	.	.	[8ee\J	.
.	.	.	16e\JJ)	.	.	.	.	.
b	8AA#/L	.	8f#\L	.	16ee\LL]	.	16ee\LL]	.
.	.	.	.	.	16dd\	.	16ff#\J	.
b	8BB/	.	16e\L	.	16cc#\	.	[8gg\J	.
.	.	.	16d\JJ	.	16b\JJ	.	.	.
b	8C#/	.	8c#\L	.	16a#\LL	.	8gg\L]	.
.	.	.	.	.	16b\J	.	.	.
b	8AA#/J	.	8f#\J	.	8cc#\J	.	8ff#\J	.
=11	=11	=11	=11	=11	=11	=11	=11	=11
b	8BB\L	.	8f#\L	.	8b/L	.	16ee\LL	mf
.	.	.	.	.	.	.	16dd\	.
b	8G\	.	16e\L	.	8b/	.	16cc#\	.
.	.	.	16d\JJ	.	.	.	16b\JJ	.
b	8E\	.	8g\L	.	8b/	.	(16cc#\LL	.
.	.	.	.	.	.	.	32dd\L	.
.	.	.	.	.	.	.	32ee\J)	.
b	8F#\J	.	16f#\L	.	8a#/J	.	16dd\	.
.	.	.	16e\JJ	.	.	.	16cc#\JJ	>
b	8BB\L	.	2d\	.	2f#/	.	2b\	.
b	8B\	.	.	.	.	.	.	.
b	8A\	.	.	.	.	.	.	.
b	8AA\J	.	.	.	.	.	.	.
=12	=12	=12	=12	=12	=12	=12	=12	=12
b	8GG#/L	.	8B\L	.	4e/	.	[4dd\	pp
b	8G#/	.	8b\J	.	.	.	.	.
b	8F#/	.	16a\LL	.	4f#/	.	16dd\LL]	.
.	.	.	16g#\J	.	.	.	16ff#\	.
b	8FF#/J	.	8a\J	.	.	.	16ee\	.
.	.	.	.	.	.	.	16dd\JJ	.
b	8EE/L	.	8.g#\L	.	8B/L	.	4.bb\	.
b	8E/	.	.	.	16e/L	.	.	.
.	.	.	16f#\Jk	.	16f#/JJ	.	.	.
b	8D/	.	[4e\	.	16g#/LL	.	.	.
.	.	.	.	.	16a/J	.	.	.
b	8DD/J	.	.	.	[8b/J	.	16aa\LL	.
.	.	.	.	.	.	.	16gg#\JJ	.
=13	=13	=13	=13	=13	=13	=13	=13	=13
.	.	.	.	.	.	.	ff#q/	.
b	8CC#/L	.	8e\L]	.	8b\]	.	16ee\LL	.
.	.	.	.	.	.	.	16aa\J	.
b	8C#/	.	8e\	.	4a/	.	8a\J	.
b	8D/	.	8f#\	.	.	.	(8.b\L	.
b	8E/J	.	8e\J	.	8g#/	.	.	.
.	.	.	.	.	.	.	32cc#\LL	.
.	.	.	.	.	.	.	32dd\JJJ)	>
b	8AA\L	.	8.e\L	.	[2a/	.	8.cc#\L	.
b	8A\	.	.	.	.	.	.	.
.	.	.	16d\Jk	.	.	.	16b\Jk	.
b	8G\	.	16c#\LL	.	.	.	4a/	.
.	.	.	16d\	.	.	.	.	.
b	8GG\J	.	16e\	.	.	.	.	.
.	.	.	16c#\JJ	.	.	.	.	.
=14	=14	=14	=14	=14	=14	=14	=14	=14
b	8FF#/L	.	8A/	.	8a\L]	.	4.dd\	p
b	8F#/	.	4d\	.	16b\L	.	.	.
.	.	.	.	.	16ccn\JJ	.	.	.
b	8G/	.	.	.	16b\LL	.	.	.
.	.	.	.	.	16cc#\J	.	.	.
b	8GG/J	.	[8B/	.	[8dd\J	.	16ff#\LL	.
.	.	.	.	.	.	.	16ee\JJ	.
b	8GG#\L	.	8B/]	.	8dd\L]	.	4.ee\	.
b	8G#\	.	4e\	.	16cc#\L	.	.	.
.	.	.	.	.	16b\JJ	.	.	.
b	8A\	.	.	.	16cc#\LL	.	.	.
.	.	.	.	.	16dd#\J	.	.	.
b	8AA\J	.	[8c#\	.	[8ee\J	.	16gg\LL	.
.	.	.	.	.	.	.	16ff#\JJ	.
=15	=15	=15	=15	=15	=15	=15	=15	=15
b	8AA#\L	.	8c#\]	.	8ee\L]	.	4.ff#\	.
b	8A#\	.	4f#\	.	16dd#\L	.	.	.
.	.	.	.	.	16cc#\JJ	.	.	.
b	8B\	.	.	.	16dd#\LL	.	.	.
.	.	.	.	.	16ee\J	.	.	.
b	8BB\J	.	8d#\	.	[8ff#\J	.	(16aa\LL	.
.	.	.	.	.	.	.	16gg\JJ)	.
b	8E\L	.	[4B/	.	16ff#\LL]	.	2gg\	>
.	.	.	.	.	16dd#\	.	.	.
b	8e\	.	.	.	16ee\	.	.	.
.	.	.	.	.	16b\JJ	.	.	.
b	8d\	.	16B\LL]	.	[4e/	.	.	.
.	.	.	16b\	.	.	.	.	.
b	8D\J	.	16g\	.	.	.	.	.
.	.	.	16e\JJ	.	.	.	.	.
=16	=16	=16	=16	=16	=16	=16	=16	=16
b	8C#\L	.	8a\L	.	16e/LL]	.	[4a/	p
.	.	.	.	.	16c#/	.	.	.
b	8c#\	.	8g\	.	16e/	.	.	.
.	.	.	.	.	16a/JJ	.	.	.
b	8A\	.	8f#\	.	8cc#\L	.	16a\LL]	<
.	.	.	.	.	.	.	16cc#\	.
b	8c#\J	.	8e\J	.	[8a\J	.	16ee\	.
.	.	.	.	.	.	.	16gg\JJ	.
b	8d\L	.	4d\	.	8a\L]	.	16gg\LL	.
.	.	.	.	.	.	.	16ee\J	.
b	8D\	.	.	.	16cc#\L	.	[8ff#\J	.
.	.	.	.	.	16dd\JJ	.	.	.
b	8Cn\	.	[4a\	.	[4d/	.	8ff#\L_	mf
b	8cn\J	.	.	.	.	.	16ff#\L]	.
.	.	.	.	.	.	.	32gg\L	.
.	.	.	.	.	.	.	32aa\JJJ	.
=17	=17	=17	=17	=17	=17	=17	=17	=17
b	8B\L	.	8a\L]	.	8d/L]	.	[4dd\	<
b	8BB\	.	8g\J	.	8e/J	.	.	.
b	8AA\	.	4a\	.	4f#/	.	16dd\LL]	.
.	.	.	.	.	.	.	16ff#\	.
b	8A\J	.	.	.	.	.	16aa\	.
.	.	.	.	.	.	.	16cccn\JJ	.
b	8G/L	.	2d\	.	[2g/	.	4.bb\	f
b	8GG/	.	.	.	.	.	.	.
b	8FF#/	.	.	.	.	.	.	.
b	8F#/J	.	.	.	.	.	8dd\	.
=18	=18	=18	=18	=18	=18	=18	=18	=18
b	8E/L	.	(16e\LL	.	8g/L]	.	16cc#\LL	.
.	.	.	16B\	.	.	.	16ee\JJ	.
b	8EE/	.	16e\	.	8b/J	.	4gg\	.
.	.	.	16g\JJ)	.	.	.	.	.
b	8DD/	.	(16b\LL	.	[4ee\	.	.	.
.	.	.	16a\	.	.	.	.	.
b	8D/J	.	16g\	.	.	.	8b\	.
.	.	.	16f#\JJ)	.	.	.	.	.
b	8C#\L	.	8e\L	.	16ee\LL]	.	8a\L	.
.	.	.	.	.	16dd\	.	.	.
b	8AA\	.	[8a\	.	16cc#\	.	16ee\L	.
.	.	.	.	.	16b\JJ	.	32ff#\L	.
.	.	.	.	.	.	.	[32gg\JJJ	.
b	8D\	.	8a\]	.	8a/L	.	16gg\LK]	.
.	.	.	.	.	.	.	8ff#\	.
b	8G\J	.	8g\J	.	8b/J	.	.	.
.	.	.	.	.	.	.	16ee\Jk	.
=19	=19	=19	=19	=19	=19	=19	=19	=19
b	8A\L	.	4f#\	.	4a/	.	32dd\LLL	.
.	.	.	.	.	.	.	32cc#\JJ	.
.	.	.	.	.	.	.	8b\	.
b	8G\	.	.	.	.	.	.	.
.	.	.	.	.	.	.	16cc#\Jk	.
b	8A\	.	8e\L	.	(16g/LL	.	8dd\L	.
.	.	.	.	.	16f#/J	.	.	.
b	8AA\J	.	8A\J	.	8g/J)	.	16cc#\L	.
.	.	.	.	.	.	.	16dd\JJ	.
b;	2DD;/	.	2A;/	.	2f#;/	.	2dd;\	.
==	==	==	==	==	==	==	==	==
*-	*-	*-	*-	*-	*-	*-	*-	*-
!!!ENC: Craig Stuart Sapp
!!!END: 2005/01/18/
